X: 1
T: Brian Boru's March
R: jig
M: 6/8
L: 1/8
K: Amin
ed |: c3/2B/A Aed | cBA Adc | B3/2A/G Gdc | BAG Ged |
c3/2B/A Aed | cBA A3 | Acd e2 d |1 cBA Aed :|2 cBA A2 G |
|: Acd e2 d | e2 d e3/2c/A | GAB d2 B | d2 B d3/2B/G | Acd e2 d |
e2 d e3/2c/A | A3/2c/d e2 d |1 c3/2B/A A2 G :|2 c3/2B/A A2 B |
|: c3/2B/A a2 a | c3/2B/A a2 a|B3/2A/G g2 g | B3/2A/G g2 B |
c3/2B/A a2 a | c3/2B/A a2 b | c'ba gfe | dcB A2 B :|
|: cde g2 e | g2 e g3/2e/c | GAB d2 B | d2 B d3/2B/G |
cde g2 e | g2 e g3/2e/c |Acd e2 d |1 c3/2B/A A2 B :|2 c3/2B/A A2 ||


Tune 271	Setting 13010

